X:1
T:Bursa, 87.87 D
T:Bursa, 87.87 D
T:Charles Clinton Case, 1881
T:Public Domain Courtesy of the Cyber Hymnal™
C:Charles Clinton Case, 1881
Z:Public Domain
Z:Courtesy of the Cyber Hymnal™
%%score ( 1 2 ) ( 3 4 )
L:1/8
Q:1/4=98
M:4/4
K:Ab
V:1 treble 
V:2 treble 
V:3 bass 
V:4 bass 
V:1
 [Ec]3 [DB] [CA][DB][Ec][Ee] | [Fd]4 [DF]4 | [DE]3 [DF] [DG][CA][EB][E=B] | [Ec]6 z2 | %4
 [Ec]3 [DB] [CA][DB][Ec][Ee] | [Fd]4 [DF]4 | [DE]3 [DF] [EG][Ed] [Ec]>[DB] | [CA]6 z2 | %8
 [EB]3 [EG] E[Ed][EB][DG] | ([CA]3 [DB]) [Ec]2 z2 | [EB]3 [EG] E[Ed][EB][E=B] | [Ec]6 z2 | %12
 [Ec]3 [DB] [CA][DB][Ec][_Ge] | [Fd]4 [DF]4 | [DE]3 [DF] [EG][Ed] [Ec]>[DB] | [CA]6 z2 |] %16
V:2
 x8 | x8 | x8 | x8 | x8 | x8 | x8 | x8 | x4 E x3 | x8 | x4 E x3 | x8 | x8 | x8 | x8 | x8 |] %16
V:3
 [A,,A,]3 [A,,A,] [A,,A,][A,,A,][A,,A,][C,A,] | [D,A,]4 [D,A,]4 | %2
 [E,G,]3 [E,A,] [E,B,][E,A,][E,G,][E,G,] | [A,,A,]6 z2 | %4
 [A,,A,]3 [A,,A,] [A,,A,][A,,A,][A,,A,][C,A,] | [D,A,]4 [D,A,]4 | %6
 [E,G,]3 [E,A,] [E,B,][E,G,] [E,A,]>[E,G,] | [A,,A,]6 z2 | %8
 [E,G,]3 [E,B,] [E,G,][E,G,][E,G,][E,B,] | [A,,A,]4 [A,,A,]2 z2 | %10
 [E,G,]3 [E,B,] [E,G,][E,B,][E,G,][E,G,] | A,6 z2 | [A,,A,]3 [A,,A,] [A,,A,][A,,A,][A,,A,][C,A,] | %13
 [D,A,]4 [D,A,]4 | [E,G,]3 [E,A,] [E,B,][E,G,] [E,A,]>[E,G,] | [A,,A,]6 z2 |] %16
V:4
 x8 | x8 | x8 | x8 | x8 | x8 | x8 | x8 | x8 | x8 | x8 | A,6 x2 | x8 | x8 | x8 | x8 |] %16

